tools/download-figma-icons/icons/solid/solar-panel-stand.svg

<svg width="24" height="24" viewBox="0 0 24 24" fill="none" xmlns="http://www.w3.org/2000/svg">
<path fill-rule="evenodd" clip-rule="evenodd" d="M15.7882 4.49995L14.4374 8.99991H9.26249L10.6117 4.49995L10.8375 3.74996L11.0625 2.99997H16.2374L16.0132 3.74996L15.7882 4.49995ZM5.88646 14.9998L7.2372 10.4999H3.17899H2.3915H1.604L0.0357706 15.5248C-0.0384786 15.7498 0.0057709 16.0048 0.14152 16.1923C0.283268 16.3873 0.508266 16.4998 0.748263 16.4998H5.43647L5.66146 15.7498L5.88646 14.9998ZM7.4619 14.9998L7.2369 15.7498L7.0119 16.4998H12.1876L12.4126 15.7498L12.6368 14.9998L13.9876 10.4999H8.81263L7.4619 14.9998ZM23.8585 3.30767C23.7167 3.11267 23.4917 3.00017 23.251 3.00017H17.8128L17.5885 3.75016L17.3628 4.50015L16.0128 9.00011H20.821H21.6085H22.396L23.9642 3.97516C24.0385 3.75016 23.9942 3.49516 23.8585 3.30767ZM15.5629 10.4999H20.3561H21.1436H21.9235L20.2136 15.9748C20.1161 16.2898 19.8311 16.4998 19.5003 16.4998H13.7629L13.9879 15.7498L14.2129 14.9998L15.5629 10.4999ZM3.64382 8.99991H7.68703L9.03701 4.49995L9.26201 3.74996L9.48701 2.99997H4.49956C4.16881 2.99997 3.88382 3.20997 3.78632 3.52496L2.07633 8.99991H2.85633H3.64382ZM11.25 19.4998H14.34C14.7548 19.4998 15.09 19.835 15.09 20.2498C15.09 20.6645 14.7548 20.9998 14.34 20.9998H6.57609C6.16209 20.9998 5.82609 20.6645 5.82609 20.2498C5.82609 19.835 6.16209 19.4998 6.57609 19.4998H9.75005V17.9998H11.25V19.4998Z" fill="black"/>
</svg>

<svg width="24" height="24" viewBox="0 0 24 24" fill="none" xmlns="http://www.w3.org/2000/svg"><path fill-rule="evenodd" clip-rule="evenodd" d="M15.788 4.5 14.438 9H9.261l1.35-4.5.226-.75.225-.75h5.174l-.224.75-.225.75ZM5.886 15l1.351-4.5H1.604L.036 15.525a.747.747 0 0 0 .712.975h4.688l.225-.75.225-.75Zm1.576 0-.225.75-.225.75h5.176l.225-.75.224-.75 1.35-4.5H8.814L7.462 15ZM23.858 3.308A.748.748 0 0 0 23.252 3h-5.438l-.224.75-.226.75-1.35 4.5h6.383l1.568-5.025a.754.754 0 0 0-.105-.667ZM15.563 10.5h6.361l-1.71 5.475a.74.74 0 0 1-.714.525h-5.737l.225-.75.225-.75 1.35-4.5ZM3.643 9h4.044l1.35-4.5.225-.75.225-.75H4.5a.74.74 0 0 0-.714.525L2.076 9h1.568Zm7.607 10.5h3.09a.75.75 0 1 1 0 1.5H6.576a.75.75 0 1 1 0-1.5H9.75V18h1.5v1.5Z" fill="currentColor"/></svg>
